img/be-icon.svg

<?xml version="1.0" encoding="UTF-8" standalone="no"?><!DOCTYPE svg PUBLIC "-//W3C//DTD SVG 1.1//EN" "http://www.w3.org/Graphics/SVG/1.1/DTD/svg11.dtd"><svg width="100%" height="100%" viewBox="0 0 24 24" version="1.1" xmlns="http://www.w3.org/2000/svg" xmlns:xlink="http://www.w3.org/1999/xlink" xml:space="preserve" style="fill-rule:evenodd;clip-rule:evenodd;stroke-linejoin:round;stroke-miterlimit:1.41421;"><path d="M8.84,10.835l-1.965,0l0,-1.859l1.783,0c1.878,0 1.646,1.859 0.182,1.859Zm5.789,1.058l2.624,0c-0.115,-1.687 -2.36,-1.81 -2.624,0Zm-5.9,0.396l-1.854,0l0,1.947l1.824,0c1.782,-0.001 1.673,-1.947 0.03,-1.947Zm15.271,-0.289c0,6.627 -5.373,12 -12,12c-6.627,0 -12,-5.373 -12,-12c0,-6.627 5.373,-12 12,-12c6.627,0 12,5.373 12,12l0,0Zm-13.357,-0.733c1.668,-0.853 1.607,-3.981 -1.587,-4.028l-4.056,0l0,8.73l3.771,0c3.958,0 3.891,-3.967 1.872,-4.702Zm3.357,-3.166l4,0l0,-0.875l-4,0l0,0.875Zm4.943,3.693c-0.545,-3.505 -6.053,-3.711 -6.053,0.872c0,4.526 5.18,3.818 5.949,1.56l-1.848,0c-0.645,0.748 -2.508,0.531 -2.404,-1.184l4.41,0c0.009,-0.555 -0.009,-0.953 -0.054,-1.248l0,0Z" style="fill:#fefffe;fill-rule:nonzero;"/></svg>

<?xml version="1.0" encoding="UTF-8" standalone="no"?>
<!DOCTYPE svg PUBLIC "-//W3C//DTD SVG 1.1//EN" "http://www.w3.org/Graphics/SVG/1.1/DTD/svg11.dtd">
<svg width="100%" height="100%" viewBox="0 0 24 24" version="1.1" xmlns="http://www.w3.org/2000/svg" xmlns:xlink="http://www.w3.org/1999/xlink" xml:space="preserve" xmlns:serif="http://www.serif.com/" style="fill-rule:evenodd;clip-rule:evenodd;stroke-linejoin:round;stroke-miterlimit:1.41421;">
    <path d="M8.84,10.835L6.875,10.835L6.875,8.976L8.658,8.976C10.536,8.976 10.304,10.835 8.84,10.835ZM14.629,11.893L17.253,11.893C17.138,10.206 14.893,10.083 14.629,11.893ZM8.729,12.289L6.875,12.289L6.875,14.236L8.699,14.236C10.481,14.235 10.372,12.289 8.729,12.289ZM24,12C24,18.627 18.627,24 12,24C5.373,24 0,18.627 0,12C0,5.373 5.373,0 12,0C18.627,0 24,5.373 24,12ZM10.643,11.267C12.311,10.414 12.25,7.286 9.056,7.239L5,7.239L5,15.969L8.771,15.969C12.729,15.969 12.662,12.002 10.643,11.267ZM14,8.101L18,8.101L18,7.226L14,7.226L14,8.101ZM18.943,11.794C18.398,8.289 12.89,8.083 12.89,12.666C12.89,17.192 18.07,16.484 18.839,14.226L16.991,14.226C16.346,14.974 14.483,14.757 14.587,13.042L18.997,13.042C19.006,12.487 18.988,12.089 18.943,11.794Z" style="fill:rgb(52,52,52);fill-rule:nonzero;"/>
</svg>
